X:8
T:Macaroni, The
M:2/4
L:1/8
B:Thompson's Compleat Collection of 200 Favourite Country Dances, vol. 3 (London, 1773)
Z:Transcribed and edited by Flynn Titford-Mock, 2007
Z:abc's:AK/Fiddler's Companion
K:D
df/(g/ a)f | dAFA | (BG)(GE) | (BG)(GE) | df/(g/ a)f | dAFA | (AF)(FD) | (AF)(FD) :|
|: EA/(B/ c)A | (ec)(cA) | (fd)(dB) | (fd)(dB) | g(e/f/ g)e | f(d/e/ f)d | e(c/d/ e)c | d2 D2 :|

